src/icons/svgs/24/circle-info.svg

<svg width="24" height="24" viewBox="0 0 24 24" fill="none" xmlns="http://www.w3.org/2000/svg">
<path d="M12 2C6.47656 2 2 6.47656 2 12C2 17.5234 6.47656 22 12 22C17.5234 22 22 17.5234 22 12C22 6.47656 17.5234 2 12 2ZM12 20.125C7.51953 20.125 3.875 16.4801 3.875 12C3.875 7.51992 7.51953 3.875 12 3.875C16.4805 3.875 20.125 7.51992 20.125 12C20.125 16.4801 16.4805 20.125 12 20.125ZM13.5625 15.125H12.9375V11.6875C12.9375 11.1719 12.5195 10.75 12 10.75H10.75C10.2344 10.75 9.8125 11.1719 9.8125 11.6875C9.8125 12.2031 10.2344 12.625 10.75 12.625H11.0625V15.125H10.4375C9.92188 15.125 9.5 15.5469 9.5 16.0625C9.5 16.5781 9.92188 17 10.4375 17H13.5625C14.0801 17 14.5 16.5801 14.5 16.0625C14.5 15.5449 14.082 15.125 13.5625 15.125ZM12 9.5C12.6902 9.5 13.25 8.94023 13.25 8.25C13.25 7.55977 12.6902 7 12 7C11.3098 7 10.75 7.55859 10.75 8.25C10.75 8.94141 11.3086 9.5 12 9.5Z" fill="black"/>
</svg>

<svg width="24" height="24" viewBox="0 0 24 24" xmlns="http://www.w3.org/2000/svg">
    <path d="M12 2C6.477 2 2 6.477 2 12s4.477 10 10 10 10-4.477 10-10S17.523 2 12 2zm0 18.125c-4.48 0-8.125-3.645-8.125-8.125S7.52 3.875 12 3.875 20.125 7.52 20.125 12 16.48 20.125 12 20.125zm1.563-5h-.626v-3.438A.938.938 0 0 0 12 10.75h-1.25a.94.94 0 0 0-.938.938.94.94 0 0 0 .938.937h.313v2.5h-.626a.94.94 0 0 0-.937.938.94.94 0 0 0 .938.937h3.124a.938.938 0 0 0 0-1.875zM12 9.5A1.25 1.25 0 1 0 12 7a1.25 1.25 0 0 0 0 2.5z"/>
</svg>
